X: 202
M: C|
L: 1/8
K: D
defg f2e2 | d4 A4 | fgab a2g2 | f4 e4 |\
gfga g2f2 | Te4 d4 | g2ag f2ga | {f2}e6 a2 |
edef e2a2 | A^GAB A2f2 | d2cB TB3A | A6 :: A2 |\
e2e>d e2f2 | g4 Te3d/e/ | f2gf e2d2 | a4 e4 |
b2ag a2gf | g4 b4 | a2gf g2fe | f4 a4 |
g2fe f2ed | e2A2 d4 | g2fe Te3d | d2dd d2af |\
d2dd d2f2 | e2ee e2eg | f2ed Te3d | d6 :|

